!!!!SEGMENT: pl-cz--iii-370--001-002_krogulski-jozef-wladyslaw--msza-c-gloria.krn
!!!cenid: 18xx:939
!!!COM: Krogulski, Józef Władysław
!!!COM-rismID: pe30001797
!!!CDT: 1815/10/04-1842/01/09
!!!CNT: Polish
!!!OPR: Msza C
!!!OTL: Gloria
!!!OMV: 002
!!!PDT:
!!!AGN: Sacred; Mass
!!!SMS-siglum: PL-CZ
!!!SMS-shelfmark: III-370
!!!SMS-shelfwork: 001-002 M
!!!SMS-variant:
!!!SMS-altvar:
!!!NIFC-rismSourceID: 300000646
!!!NIFC-islandoraID: pl-cz:38094
!!!URL-pdf-islandora: https://repozytorium.nifc.pl/islandora/object/pl-cz%3A38094/datastream/PDF/view
!!!URL-scan:
!!!ONB-nifc: UWAGA: części Mszy: Kyrie, Gloria, Andante przed Ewangelią, Credo, Offertorium, Sanctus, Benedictus, Agnus, Na Benedykcyią
!!!AIN: 1 bass 1 organ 2 vox
!!!key: G
**kern	**kern	**dynam	**kern	**dynam	**text	**mod-text	**kern	**dynam	**text	**mod-text	**kern	**dynam	**text	**mod-text
*part4	*part4	*part4	*part3	*part3	*part3	*part3	*part2	*part2	*part2	*part2	*part 1	*part1	*part1	*part1
*staff5	*staff4	*	*staff3	*	*staff3	*staff3	*staff2	*	*staff2	*staff2	*staff1	*	*staff1	*staff1
*I"Organ	*I"Organ	*	*I"Bas	*	*	*	*I"Spiew Drugi	*	*	*	*I"Spiew Pierwszy	*	*	*
*mI"Organo	*mI"Organo	*	*mI"Basso	*	*	*	*mI"Voce II	*	*	*	*mI"Voce I	*	*	*
*I'org	*I'org	*	*I'B	*	*	*	*I'V 2	*	*	*	*I'V 1	*	*	*
*Iorgan	*Iorgan	*	*Ibass	*	*	*	*Ivox	*	*	*	*Ivox	*	*	*
*ICklav	*ICklav	*	*ICvox	*	*	*	*ICvox	*	*	*	*ICvox	*	*	*
*IGacmp	*IGacmp	*	*	*	*	*	*	*	*	*	*	*	*	*
*>[A,A,B]	*>[A,A,B]	*>[A,A,B]	*>[A,A,B]	*>[A,A,B]	*>[A,A,B]	*>[A,A,B]	*>[A,A,B]	*>[A,A,B]	*>[A,A,B]	*>[A,A,B]	*>[A,A,B]	*	*>[A,A,B]	*>[A,A,B]
!!!OMD:
!!!OMD-mod: Allegro
*>A	*>A	*>A	*>A	*>A	*>A	*>A	*>A	*>A	*>A	*>A	*>A	*	*>A	*>A
*clefF4	*clefG2	*	*clefF4	*	*	*	*clefG2	*	*	*	*clefG2	*	*	*
*k[f#]	*k[f#]	*	*k[]	*	*	*	*k[]	*	*	*	*k[f#]	*	*	*
*	*	*	*mk[f#]	*	*	*	*mk[f#]	*	*	*	*	*	*	*
*G:	*G:	*	*G:	*	*	*	*G:	*	*	*	*G:	*	*	*
*M4/4	*M4/4	*	*M4/4	*	*	*	*M4/4	*	*	*	*M4/4	*	*	*
*met(c)	*met(c)	*	*met(c)	*	*	*	*met(c)	*	*	*	*met(c)	*	*	*
=1	=1	=1	=1	=1	=1	=1	=1	=1	=1	=1	=1	=1	=1	=1
*all\right	*all\right	*	*all\right	*	*	*	*all\right	*	*	*	*all\right	*	*	*
*	*2\right	*	*2\right	*	*	*	*2\right	*	*	*	*2\right	*	*	*
!	!LO:TX:a:t=Allegro:mod=	!	!LO:TX:t=P:problem=brak znaku przykluczowego	!LO:DY:a:t=for	!	!	!LO:TX:t=P:problem=brak znaku przykluczowego	!LO:DY:a:t=for	!	!	!	!	!	!
!	!	!	!	!	!	!	!	!	!	!	!	!LO:DY:t= :mod=%s	!	!
!	!	!	!	!	!	!	!	!	!	!	!	!LO:MO:mod=!LO&colon;DY&colon;ed=brack	!	!
!LO:SIC:s=[1G [1GG:v	!	!	!	!	!	!	!	!	!	!	!	!null	!	!
[1G 1GG	2dd 2b\	f	2G\	f	To-	To-	2b\	f	To-	To-	2dd\	f	To-	To-
.	4gg 4b\	.	4G\	.	-bie	-bie	4b\	.	-bie	-bie	4gg\	.	-bie	-bie
.	4ee 4cc\	.	4G\	.	cześć	cześć,	4cc\	.	cześć	cześć,	4ee\	.	cześć	cześć,
=2	=2	=2	=2	=2	=2	=2	=2	=2	=2	=2	=2	=2	=2	=2
!LO:SIC:s=2G] 2GG/]:v	!	!	!	!	!	!	!	!	!	!	!	!	!	!
2G] 2GG/	2dd 2b\	.	4G\	.	to-	To-	4.b\	.	to-	To-	4.dd\	.	to-	To-
.	.	.	4G\	.	-bie	-bie	.	.	.	.	.	.	.	.
.	.	.	.	.	.	.	8b\	.	-bie	-bie	8dd\	.	-bie	-bie
4C/	4cc 4a\	.	4C\	.	chwa-	chwa-	4a\	.	chwa-	chwa-	4cc\	.	chwa-	chwa-
!	!	!	!	!	!	!	!LO:SIC:v:s=4f#/	!	!	!	!	!	!	!
4D/	4a 4f#\	.	4D\	.	-ła	-ła,	4f/	.	-ła	-ła,	4a\	.	-ła	-ła,
=3	=3	=3	=3	=3	=3	=3	=3	=3	=3	=3	=3	=3	=3	=3
4G\	2b 2g\	.	4G\	.	wszech-	wszech-	4g/	.	wszech-	wszech-	4b\	.	wszech-	wszech-
4E\	.	.	4E\	.	-mo-	-mo-	4g/	.	-mo-	-mo-	4b\	.	-mo-	-mo-
!	!	!	!	!	!	!	!LO:SIC:s=(8cc\L:v	!	!	!	!	!	!	!
4.C/	8eeL 8cc\	.	4.C\	.	-gą-	-gą-	8cc\L	.	-gą-	-gą-	(8ee\L	.	-gą-	-gą-
.	8dd 8b\	.	.	.	.	.	8b\	.	.	.	8dd\	.	.	.
!	!	!	!	!	!	!	!LO:SIC:s=8a\J):v	!	!	!	!	!	!	!
.	8cc 8a\	.	.	.	.	.	8a\J	.	.	.	8cc\J)	.	.	.
8C#X/	8bJ 8g\	.	8C#X\	.	-cy	-cy	8g/	.	-cy	-cy	8b\	.	-cy	-cy
=4	=4	=4	=4	=4	=4	=4	=4	=4	=4	=4	=4	=4	=4	=4
*2\right	*	*	*	*	*	*	*	*	*	*	*	*	*	*
2D\	2b 2g\	.	2D\	.	Bo-	Bo-	2g/	.	Bo-	Bo-	2b\	.	Bo-	Bo-
!	!	!	!	!	!	!	!LO:SIC:s=8f#/:v	!	!	!	!	!	!	!
8D\	8a 8f#/	.	8D\	.	-że	-że,	8g/	.	-że	-że,	8a\	.	-że	-że,
8r	8r	.	8r	.	.	.	8r	.	.	.	8r	.	.	.
!	!	!	!	!	!	!	!LO:LB:g=original	!	!	!	!	!	!	!
!	!	!	!	!	!	!	!LO:SIC:v:s=4f#/	!	!	!	!	!	!	!
4D 4DD/	4a 4f#/	.	4D\	.	Coś	coś	4f/	.	Coś	coś	4a\	.	Coś	coś
=5	=5	=5	=5	=5	=5	=5	=5	=5	=5	=5	=5	=5	=5	=5
!	!	!	!	!	!	!	!LO:SIC:v:s=4f#/	!	!	!	!	!	!	!
1D 1DD	4a 4f#/	.	4D\	.	stwo-	stwo-	4f/	.	stwo-	stwo-	4a\	.	stwo-	stwo-
!	!	!	!LO:LB:g=original	!	!	!	!	!	!	!	!	!	!	!
.	4b 4g/	.	4D\	.	-rzył	-rzył	4g/	.	-rzył	-rzył	4b\	.	-rzył	-rzył
.	4cc 4a/	.	4D\	.	wszy-	wszy-	4a/	.	wszy-	wszy-	4cc\	.	wszy-	wszy-
*	*	*	*	*	*	*	*	*	*	*	*	*	*above	*above
!	!	!	!	!	!	!	!LO:SIC:v:s=4f#/	!	!	!	!	!	!	!
.	4a 4f#/	.	4D\	.	-tkie	-[s]tkie	4f/	.	-stkie	-stkie	4a\	.	-stkie	-stkie
=6	=6	=6	=6	=6	=6	=6	=6	=6	=6	=6	=6	=6	=6	=6
*	*	*	*	*	*	*	*	*	*	*	*	*	*below	*below
1G 1GG	4.b 4.g\	.	2G\	.	rze-	rze-	(4.g/	.	rze-	rze-	(4.b\	.	rze-	rze-
!	!	!	!	!	!	!	!	!	!	!	!LO:SIC:s=8cc\):v	!	!	!
.	8cc 8a\	.	.	.	.	.	8a/)	.	.	.	8cc\	.	.	.
!	!	!	!	!	!	!	!	!	!	!	!LO:SIC:s=8dd\:v	!	!	!
.	4dd 4b\	.	8G\	.	-czy	-czy	8b/	.	-czy	-czy	8dd\)	.	-czy	-czy
.	.	.	8r	.	.	.	8r	.	.	.	8r	.	.	.
.	4dd 4b\	.	4G\	.	i	i	4b\	.	i	i	4dd	.	i	i
=7	=7	=7	=7	=7	=7	=7	=7	=7	=7	=7	=7	=7	=7	=7
!	!	!	!	!	!	!	!	!	!	!	!LO:MO:mod=!null:null	!	!	!
!	!	!	!	!	!	!	!	!	!	!	!LO:TX:a:t=wi\n=	!	!	!
2E\	2gg 2b\	.	2E\	.	rzą-	rzą-	2b\	.	rzą-	rzą-	2gg\	.	rzą-	rzą-
!	!	!	!	!	!	!	!	!	!	!	!LO:MO:mod=!null:null	!	!	!
!LO:LB:g=original	!LO:LB:g=original	!	!	!	!	!	!	!	!	!	!LO:TX:aq:t==	!	!	!
!	!	!	!	!	!	!	!LO:SIC:s=(8a/L:v	!	!	!	!LO:SIC:s=(8ff#L\:v	!	!	!
4E\	8ff#L 8a\	.	4E\	.	-dzisz	-dzisz	8a/L	.	-dzisz	-dzisz	8ff#L\	.	-dzisz	-dzisz
!	!	!	!	!	!	!	!LO:SIC:s=8g/J):v	!	!	!	!LO:SIC:s=8eeJ\):v	!	!	!
.	8ee 8g\	.	.	.	.	.	8g/J	.	.	.	8eeJ\	.	.	.
!	!	!	!	!	!	!	!LO:SIC:s=(8f#/L:v	!	!	!	!LO:SIC:s=(8ddL\:v	!	!	!
4A\	8dd 8f#\	.	4A\	.	wszy-	wszy-	8f/L	.	wszy	wszy-	8ddL\	.	wszy	wszy
!	!	!	!	!	!	!	!LO:SIC:s=8e/J):v	!	!	!	!LO:SIC:s=8cc#J\):v	!	!	!
.	8cc#XJ 8e\	.	.	.	.	.	8e/J	.	.	.	8cc#J\	.	.	.
!	!	!	!	!	!	!	!	!	!	!	!LO:LB:g=original	!	!	!
=8	=8	=8	=8	=8	=8	=8	=8	=8	=8	=8	=8	=8	=8	=8
2AA/	2ee 2cc#X 2g\	.	2A\	.	-stkie-	-stkie-	2g/	.	-stkie-	-stkie-	2ee\	.	-stkie-	-stkie-
!	!	!	!	!	!	!	!LO:SIC:v:s=4f#/	!	!	!	!	!	!	!
4D\	8ddL 8f#\	.	4D\	.	-mi	-mi.	4f/	.	-mi	-mi.	4dd\	.	-mi	-mi.
.	8a 8f#\	.	.	.	.	.	.	.	.	.	.	.	.	.
4r	8b 8g\	.	4r	.	.	.	4r	.	.	.	4r	.	.	.
.	8ccnJ 8a\	.	.	.	.	.	.	.	.	.	.	.	.	.
=9	=9	=9	=9	=9	=9	=9	=9	=9	=9	=9	=9	=9	=9	=9
2G 2GG\	4.dd 4.b\	.	4G\	.	od-	Od-	4.b/	.	od-	Od-	4.dd\	.	od-	Od-
.	.	.	4G\	.	-wroc	-wróć	.	.	.	.	.	.	.	.
.	8cc 8a\	.	.	.	.	.	8a/	.	-wroc	-wróć	8cc\	.	-wroc	-wróć
!	!	!	!	!	!	!	!LO:LB:g=original	!	!	!	!	!	!	!
2ryy	4b 4g\	.	4G\	.	od	od	4g/	.	od	od	4b\	.	od	od
.	8ccL 8a\	.	8G\	.	nas	nas	8a/	.	nas	nas	8cc\	.	nas	nas
.	8ddJ 8b\	.	8G\	.	co	co	8b/	.	co	co	8dd\	.	co	co
=10	=10	=10	=10	=10	=10	=10	=10	=10	=10	=10	=10	=10	=10	=10
2C\	2.ee 2.cc\	.	2C/	.	po-	po-	2.cc\	.	po-	po-	2.ee\	.	po-	po-
4E\	.	.	(4E/	.	-koj	-kój	.	.	.	.	.	.	.	.
4G\	4dd 4b\	.	4G/)	.	.	.	4b\	.	-koj	-kój	4dd\	.	-koj	-kój
!	!	!	!LO:LB:g=original	!	!	!	!	!	!	!	!	!	!	!
=11	=11	=11	=11	=11	=11	=11	=11	=11	=11	=11	=11	=11	=11	=11
2D/	4cc 4a\	.	4D\	.	du-	du-	4a/	.	du-	du-	4cc\	.	du-	du-
.	4b 4g\	.	4D\	.	-szy	-szy	4g/	.	-szy	-szy	4b\	.	-szy	-szy
!	!	!	!	!	!	!	!LO:SIC:s=(8f#/L:v	!	!	!	!LO:SIC:s=(8aL\:v	!	!	!
4DD/	8aL 8f#\	.	4D\	.	mie-	mie-	8f/L	.	mie-	mie-	8aL\	.	mie-	mie-
.	8b 8g\	.	.	.	.	.	8g/	.	.	.	8b\	.	.	.
!	!	!	!	!	!	!	!LO:SIC:s=8a/J):v	!	!	!	!LO:SIC:s=8ccJ\):v	!	!	!
4D\	8cc 8a\	.	4D\	.	-szać	-szać	8a/J	.	.	.	8ccJ\	.	.	.
.	8ddJ 8b\	.	.	.	.	.	8b/	.	-szac	-szać	8dd\	.	-szać	-szać
=12	=12	=12	=12	=12	=12	=12	=12	=12	=12	=12	=12	=12	=12	=12
2F# 2DD/	2cc 2a 2f#\	.	2D\	.	mo-	mo-	2a/	.	mo-	mo-	2cc\	.	mo-	mo-
4G 4GG\	4b 4g\	.	8G\	.	-ze	-że	8g/	.	-ze	-że	8b\	.	-ze	-że
.	.	.	8r	.	.	.	8r	.	.	.	8r	.	.	.
4B 4BB\	4dd 4g\	.	4B\	.	i	i	4g/	.	j	i	4dd\	.	j	i
=13	=13	=13	=13	=13	=13	=13	=13	=13	=13	=13	=13	=13	=13	=13
*	*^	*	*	*	*	*	*	*	*	*	*	*	*	*
2c 2C\	2ee\	1g	.	2c\	.	spraw	spraw	2g/	.	spraw	spraw	2ee\	.	spraw	spraw
2B 2BB\	2dd/	.	.	2B\	.	niech	niech	2g/	.	niech	niech	2dd\	.	niech	niech
*	*v	*v	*	*	*	*	*	*	*	*	*	*	*	*	*
=14	=14	=14	=14	=14	=14	=14	=14	=14	=14	=14	=14	=14	=14	=14
2c 2C\	2ee 2g\	.	2c\	.	po-	po-	2g/	.	po-	po-	2ee\	.	po-	po-
!LO:LB:g=original	!LO:LB:g=original	!	!	!	!	!	!	!	!	!	!	!	!	!
2c 2C\	4ee 4cc\	.	4c\	.	-koj	-kój	4cc\	.	-koj	-kój	4ee\	.	-koj	-kój
.	4cc 4a\	.	4c\	.	za-	za-	4a\	.	za-	za-	4cc\	.	za-	za-
!	!	!	!	!	!	!	!LO:LB:g=original	!	!	!	!	!	!	!
=15	=15	=15	=15	=15	=15	=15	=15	=15	=15	=15	=15	=15	=15	=15
!	!LO:SIC:s=2b 2g/:v	!	!	!	!	!	!	!	!	!	!	!	!	!
2d 2D\	2cc 2g/	.	2d\	.	-kwi-	-kwi-	2g/	.	-kwi-	-kwi-	2b\	.	-kwi-	-kwi-
!	!	!	!	!	!	!	!LO:SIC:v:s=4f#/	!	!	!	!LO:LB:g=original	!	!	!
2D 2DD/	4dd 4a 4f#/	.	4D/	.	-tnie	-tnie	4f/	.	-tnie	-tnie	4dd\	.	-tnie	-tnie
*	*	*	*	*	*above	*above	*	*	*	*	*	*	*	*
!	!	!	!	!	!	!	!LO:SIC:v:s=4f#/	!	!	!	!	!	!	!
.	4cc 4a 4f#/	.	4D/	.	na	na	4f/	.	na	na	4cc\	.	na	na
=16	=16	=16	=16	=16	=16	=16	=16	=16	=16	=16	=16	=16	=16	=16
*	*	*	*	*	*below	*below	*	*	*	*	*	*	*	*
2D#X 2DD/	2cc 2a 2f#/	.	2D#X/	.	zie-	zie-	2a/	.	zie-	zie-	2cc\	.	zie-	zie-
8E 8EE/	8b 8g/	.	8E/	.	-mi	-mi,	8g/	.	-mi	-mi,	8b\	.	-mi	-mi,
8r	8r	.	8r	.	.	.	8r	.	.	.	8r	.	.	.
4E\	4b 4g/	.	4E\	.	i	i	4g/	.	i	i	4b\	.	i	i
!	!	!	!LO:LB:g=original	!	!	!	!	!	!	!	!	!	!	!
=17	=17	=17	=17	=17	=17	=17	=17	=17	=17	=17	=17	=17	=17	=17
*	*^	*	*	*	*	*	*	*	*	*	*	*	*	*
!	!	!	!	!LO:SIC:s=(4C/:v	!	!	!	!	!	!	!	!	!	!	!
4C/	4ee/	2.g\	.	4C/	.	spraw	spraw	2.g/	.	spraw	spraw	(4ee\	.	spraw	spraw
4BB/	4dd/	.	.	4BB/	.	.	.	.	.	.	.	4dd\	.	.	.
!	!	!	!	!LO:SIC:s=4C/):v	!	!	!	!	!	!	!	!LO:SIC:s=4ee\):v	!	!	!
4C/	4ee/	.	.	4C/	.	niech	.	.	.	.	.	4ee\	.	.	.
!	!LO:SIC:s=4ff# 4b/:v	!	!	!LO:SIC:s=4D#/:v	!	!	!	!	!	!	!	!LO:SIC:s=4ff#\:v	!	!	!
4D#X/	4ff# 4cc/	4ryy	.	4D/	.	.	niech	4b\	.	niech	niech	4ff#\)	.	niech	niech
*	*v	*v	*	*	*	*	*	*	*	*	*	*	*	*	*
=18	=18	=18	=18	=18	=18	=18	=18	=18	=18	=18	=18	=18	=18	=18
2E\	2gg 2b\	.	2E/	.	po-	po-	2b\	.	po-	po-	2gg\	.	po-	po-
2C\	4gg 4ee\	.	4C/	.	-koj	-kój	4ee\	.	-koj	-kój	4gg\	.	-koj	-kój
.	4ee 4cc\	.	4C/	.	za-	za-	4cc\	.	za-	za-	4ee\	.	za-	za-
=19	=19	=19	=19	=19	=19	=19	=19	=19	=19	=19	=19	=19	=19	=19
!LO:MO:mod=!null:null	!	!	!	!	!	!	!	!	!	!	!	!	!	!
!LO:N:vis=2	!	!	!	!	!	!	!	!	!	!	!	!	!	!
[1D\	2dd 2b\	.	2D/	.	-kwit-	-kwi-	2b\	.	-kwit-	-kwi-	2dd\	.	-kwit-	-kwi-
.	4cc 4a\	.	4D/	.	-nie	-tnie	4a\	.	-nie	-tnie	4cc\	.	-nie	-tnie
!	!	!	!	!	!	!	!LO:SIC:v:s=4f#/	!	!	!	!	!	!	!
.	4a 4f# 4c/	.	4D/	.	na	na	4f/	.	na	na	4a\	.	na	na
=20	=20	=20	=20	=20	=20	=20	=20	=20	=20	=20	=20	=20	=20	=20
!	!	!	!	!	!	!	!LO:SIC:v:s=2f#/	!	!	!	!	!	!	!
2D\]	2a 2f# 2c/	.	2D/	.	zie-	zie-	2f/	.	zie-	zie-	2a\	.	zie-	zie-
4G\	4g 4B/	.	4G/	.	-mi	-mi.	4g/	.	-mi	-mi.	4g\	.	-mi	-mi.
4r	4r	.	4r	.	.	.	4r	.	.	.	4r	.	.	.
!	!	!	!	!	!	!	!LO:LB:g=original	!	!	!	!	!	!	!
=21:|!	=21:|!	=21:|!	=21:|!	=21:|!	=21:|!	=21:|!	=21:|!	=21:|!	=21:|!	=21:|!	=21:|!	=21:|!	=21:|!	=21:|!
*>B	*>B	*>B	*>B	*>B	*>B	*>B	*>B	*>B	*>B	*>B	*>B	*	*>B	*>B
*	*^	*	*	*	*	*	*	*	*	*	*	*	*	*
!	!	!	!	!	!	!	!	!LO:SIC:v:s=2f#/	!	!	!	!	!	!	!
2D\	2.dd/	2f#/	.	2D/	.	a-	A-	2f/	.	a-	A-	2.dd\	.	a-	A-
4E\	.	4g/	.	4E/	.	.	.	4g/	.	.	.	.	.	.	.
!	!	!	!	!LO:SIC:v:s=4F#/	!	!	!	!	!	!	!	!	!	!	!
4F#\	4cc 4a/	4ryy	.	4F/	.	.	.	4a/	.	.	.	4cc\	.	.	.
*	*v	*v	*	*	*	*	*	*	*	*	*	*	*	*	*
=22	=22	=22	=22	=22	=22	=22	=22	=22	=22	=22	=22	=22	=22	=22
2G\	2.b 2.g/	.	2G\	.	.	.	1g	.	.	.	2.b\	.	.	.
4E\	.	.	4E\	.	.	.	.	.	.	.	.	.	.	.
4C\	4ee 4g\	.	4C\	.	.	.	.	.	.	.	4ee\	.	.	.
=23	=23	=23	=23	=23	=23	=23	=23	=23	=23	=23	=23	=23	=23	=23
!LO:SIC:s=[1D [1DD:v	!	!	!	!	!	!	!LO:SIC:s=2b\:v	!	!	!	!	!	!	!
[1D 1DD	2dd 2b\	.	2D\	.	.	.	(2b\	.	.	.	2dd\	.	.	.
!	!	!	!	!	!	!	!LO:SIC:s=4a/:v	!	!	!	!	!	!	!
.	4cc 4a\	.	2D\	.	-men	-men,	4a/)	.	.	.	4cc\	.	.	.
!	!	!	!	!	!	!	!LO:SIC:v:s=4f#/	!	!	!	!	!	!	!
.	4a 4f# 4c/	.	.	.	.	.	4f/	.	-men	-men,	4a\	.	-men	-men,
=24	=24	=24	=24	=24	=24	=24	=24	=24	=24	=24	=24	=24	=24	=24
!LO:SIC:s=2D] 2DD/]:v	!	!	!	!	!	!	!LO:SIC:v:s=2f#/	!	!	!	!	!	!	!
2D] 2DD/	2a 2f# 2c/	.	2D\	.	a-	a-	2f/	.	a-	a-	2a/	.	a-	a-
4G 4GG/	4g 4B/	.	4G\	.	-(men)	-(men).	4g/	.	-men	-men.	4g/	.	-(men)	-(men).
4ryy	4ryy	.	4r	.	.	.	4r	.	.	.	4r	.	.	.
==	==	==	==	==	==	==	==	==	==	==	==	==	==	==
*-	*-	*-	*-	*-	*-	*-	*-	*-	*-	*-	*-	*-	*-	*-
!!!system-decoration: [(s1,s2,s3)]{(s4,s5)}
!!!filter-modern: tie -s | humtr -p | sic -sq | shed -e "s/LO:DY:(a|b|rj)/LO:dy:$1/L" | shed -e "s/TX(.*):t=P:/tx$1:t=P:/LG" | modori -m | autostem -r | shed -e "s/yy//" | shed -k -e "s/\(y([^y])/($1/" | shed -e "s/-//B" | shed -e "s/^(\d+[\/\\]right)/$1yy/I; s/^(\d+[\/\\]left)/$1yy/I" | shed -e "s/^(X?)rep$/$1REP/I" | shed -k -e "s/[<>]//g" | shed -e "s/^custos:/Xcustos:/I" | shed -k -e "s/:TUP:/:tup:/L" | rid -lid
!!!ENC: Tomasz Grochalski
!!!END: 2020-08-28
!!!ENC: Marta Lawrence
!!!END: 2021-11-08
!!!EED-modern: Antoni Szymański
!!!END-modern: 2022-07-05
